svg/design/ease_out_control_point_fill.svg

<svg xmlns="http://www.w3.org/2000/svg" width="24" height="24" viewBox="0 0 24 24"><g fill="none"><path d="M24,0 L24,24 L0,24 L0,0 L24,0 Z M12.5935,23.2578 L12.5819,23.2595 L12.5109,23.295 L12.4919,23.2987 L12.4767,23.295 L12.4057,23.2595 C12.3958,23.2564 12.387,23.259 12.3821,23.2649 L12.378,23.2758 L12.3609,23.7031 L12.3659,23.7235 L12.3769,23.7357 L12.4805,23.8097 L12.4953,23.8136 L12.5071,23.8097 L12.6107,23.7357 L12.6233,23.7197 L12.6267,23.7031 L12.6096,23.2758 C12.6076,23.2657 12.601,23.2593 12.5935,23.2578 Z M12.8584,23.1453 L12.8445,23.1473 L12.6598,23.2397 L12.6499,23.2499 L12.6472,23.2611 L12.6651,23.6906 L12.6699,23.7034 L12.6784,23.7105 L12.8793,23.8032 C12.8914,23.8069 12.9022,23.803 12.9078,23.7952 L12.9118,23.7812 L12.8777,23.1665 C12.8753,23.1546 12.8674,23.147 12.8584,23.1453 Z M12.143,23.1473 C12.1332,23.1424 12.1222,23.1453 12.1156,23.1526 L12.1099,23.1665 L12.0758,23.7812 C12.0751,23.7927 12.0828,23.8019 12.0926,23.8046 L12.1083,23.8032 L12.3092,23.7105 L12.3186,23.7024 L12.3225,23.6906 L12.3404,23.2611 L12.3372,23.2485 L12.3278,23.2397 L12.143,23.1473 Z"/><path fill="#09244B" d="M20,3 C20.5523,3 21,3.44772 21,4 C21,4.55228 20.5523,5 20,5 C18.312,5 16.5564,5.79562 14.8076,7.14999 C13.0678,8.49744 11.4253,10.3284 9.9844,12.2291 L9.76342819,12.52322 L9.76342819,12.52322 L9.33274855,13.111586 L9.33274855,13.111586 L8.91764363,13.6976638 L8.91764363,13.6976638 L8.51878074,14.2785066 L8.51878074,14.2785066 L8.13682715,14.8511674 L8.13682715,14.8511674 L7.77245015,15.4126991 L7.77245015,15.4126991 L7.42631704,15.9601547 L7.42631704,15.9601547 L6.94278436,16.7484988 L6.94278436,16.7484988 L6.64518035,17.2478711 L6.64518035,17.2478711 L6.23756924,17.9502762 L6.23756924,17.9502762 L5.87851386,18.5878563 L5.87851386,18.5878563 L5.47919705,19.3199334 L5.47919705,19.3199334 L4.97289185,20.291004 L4.97289185,20.291004 L4.89443,20.4472 C4.64744,20.9412 4.04676,21.1414 3.55279,20.8944 C3.05881,20.6474 2.85898,20.046 3.10597,19.552 L3.52784632,18.7301926 L3.52784632,18.7301926 L3.89095238,18.0518012 L3.89095238,18.0518012 L4.35186309,17.2206563 L4.35186309,17.2206563 L4.75843868,16.5118878 L4.75843868,16.5118878 L5.21464287,15.7414706 L5.21464287,15.7414706 L5.54521046,15.1987473 L5.54521046,15.1987473 L6.07899901,14.3487012 L6.07899901,14.3487012 L6.45915199,13.7625249 L6.45915199,13.7625249 L6.85794213,13.1643619 L6.85794213,13.1643619 L7.27468543,12.5572947 L7.27468543,12.5572947 L7.70869789,11.9444058 C7.7824344,11.8419438 7.85686195,11.7393677 7.93196631,11.6367416 L8.3906,11.0209 L8.3906,11.0209 C9.88724,9.04659 11.651,7.06506 13.583,5.56876 C15.5061,4.07938 17.688,3 20,3 Z M5,1 C6.30622,1 7.41746,1.83481 7.82929,3 L9,3 C9.55228,3 10,3.44772 10,4 C10,4.55228 9.55228,5 9,5 L7.82929,5 C7.41746,6.16519 6.30622,7 5,7 C3.34315,7 2,5.65685 2,4 C2,2.34315 3.34315,1 5,1 Z M13,3 C13.5523,3 14,3.44772 14,4 C14,4.55228 13.5523,5 13,5 L12,5 C11.4477,5 11,4.55228 11,4 C11,3.44772 11.4477,3 12,3 L13,3 Z"/></g></svg>

<svg xmlns="http://www.w3.org/2000/svg" width="24" height="24"><g fill="none"><path d="M24 0v24H0V0zM12.594 23.258l-.012.002-.071.035-.02.004-.014-.004-.071-.036c-.01-.003-.019 0-.024.006l-.004.01-.017.428.005.02.01.013.104.074.015.004.012-.004.104-.074.012-.016.004-.017-.017-.427c-.002-.01-.009-.017-.016-.018m.264-.113-.014.002-.184.093-.01.01-.003.011.018.43.005.012.008.008.201.092c.012.004.023 0 .029-.008l.004-.014-.034-.614c-.003-.012-.01-.02-.02-.022m-.715.002a.023.023 0 0 0-.027.006l-.006.014-.034.614c0 .012.007.02.017.024l.015-.002.201-.093.01-.008.003-.011.018-.43-.003-.012-.01-.01z"/><path fill="#09244B" d="M20 3a1 1 0 1 1 0 2c-1.688 0-3.444.796-5.192 2.15-1.74 1.347-3.383 3.178-4.824 5.08l-.22.293-.431.589-.415.586-.4.58-.381.573-.365.562-.346.547-.483.788-.298.5-.407.702-.36.638-.399.732-.506.971-.079.156a1 1 0 1 1-1.788-.895l.422-.822.363-.678.46-.831.407-.71.457-.77.33-.542.534-.85.38-.586.399-.599.417-.607.434-.613.223-.307.459-.616c1.496-1.974 3.26-3.956 5.192-5.452C15.506 4.079 17.688 3 20 3M5 1c1.306 0 2.417.835 2.83 2H9a1 1 0 0 1 0 2H7.83A3.001 3.001 0 1 1 5 1m8 2a1 1 0 1 1 0 2h-1a1 1 0 1 1 0-2z"/></g></svg>
